icons/pwid_fill.svg

<svg width="48" height="48" viewBox="0 0 48 48" fill="none" xmlns="http://www.w3.org/2000/svg">
<path fill-rule="evenodd" clip-rule="evenodd" d="M33 14.4142L34.2929 15.7071L35.7071 14.2929L31.7071 10.2929L30.2929 11.7071L31.5858 13L28.5 16.0858L25.7071 13.2929L24.2929 14.7071L25.5858 16L19.7071 21.8787C18.7517 22.8341 18.5754 24.2736 19.1783 25.4076L17.8684 26.7175L15.7035 24.264L8.32691 32.0289L12.4506 34.9154C13.4591 35.6214 14.6603 36 15.8913 36H31C31 37.1046 31.8954 38 33 38H42C43.1046 38 44 37.1046 44 36V30C44 28.8954 43.1046 28 42 28H41.5V34H38.5C36.8431 34 35.5 32.6569 35.5 31V29.5H37.5V31C37.5 31.5523 37.9477 32 38.5 32H39.5V28C39.5 26.8954 38.6046 26 37.5 26H34L31 28H21.5356L17.5356 32L15.4142 32.0001L20.5925 26.8218C21.7265 27.4246 23.1659 27.2483 24.1213 26.2929L30 20.4142L31.2929 21.7071L32.7071 20.2929L29.9142 17.5L33 14.4142ZM23.9786 20.4357L27 17.4142L28.5858 19L25.5644 22.0214L23.9786 20.4357ZM16.4749 33.0608L16.4141 33H16.5356L16.4749 33.0608Z" fill="black"/>
<path d="M4 11L14.3751 22.7585L6.67008 30.8691L4 29V11Z" fill="black"/>
</svg>

<svg
  xmlns="http://www.w3.org/2000/svg"
  width="24"
  height="24"
  viewBox="0 0 24 24"
  fill="none"
  stroke="currentColor"
  stroke-width="2"
  stroke-linecap="round"
  stroke-linejoin="round"
>
  <path
    fill-rule="evenodd"
    d="m33 14.414 1.293 1.293 1.414-1.414-4-4-1.414 1.414L31.586 13 28.5 16.086l-2.793-2.793-1.414 1.414L25.586 16l-5.879 5.879a3 3 0 0 0-.529 3.529l-1.31 1.31-2.164-2.454-7.377 7.765 4.124 2.886A6 6 0 0 0 15.89 36H31a2 2 0 0 0 2 2h9a2 2 0 0 0 2-2v-6a2 2 0 0 0-2-2h-.5v6h-3a3 3 0 0 1-3-3v-1.5h2V31a1 1 0 0 0 1 1h1v-4a2 2 0 0 0-2-2H34l-3 2h-9.464l-4 4h-2.122l5.179-5.178a3 3 0 0 0 3.528-.53L30 20.415l1.293 1.293 1.414-1.414-2.793-2.793zm-9.021 6.022L27 17.414 28.586 19l-3.022 3.021zM16.475 33.06l-.06-.061h.12z"
    clip-rule="evenodd"
  />
  <path d="m4 11 10.375 11.759-7.705 8.11L4 29z" />
</svg>
